X:1
T:the Ornithologist (Bobby Tullock Twostep)
M:6/8
L:1/8
C:Freeland Barbour
S:from Geoff Wright on tradtunes 2022-1-20
S:The Bracken Rigg Band, Scawthorpe, Doncaster, UK
K:A
EFG [| A2E c2E | A3 c2e | f2e^d2e | (B3 B2)A |\
G2e e^de | d2B EFG | AGA c2A | E3 EFG |
A2Ec2E | A3 c2e | f2e ^d2e | (B3 B2)A |\
G2B e2f | g2e e^de | dBG EFG | A3 |]
CD^D [| E2c c2B | A2GA2E | F2dd2c | B2^A B2F |\
G2e e^de | d2B EFG | AGA c2A | E3 CD^D |
E2c c2B | A2GA2E | F2d d2c | B2^A B2F |\
G2e e^de | d2B EFG | AGA c2B | A3 |]
K:D
ABc [| d3A3 | F2Af2e | d2cd2B | (A3 A2)d |\
e2^d e2f | g2e c2B | A^GA d2e | f3 ABc |
d3A3 | F2A f2e | d2cd2B | (A3 A2)d |\
e2^de2f | g2e c2B | A^GA f2e | d3 |]
K:G
d^c=c [| B3d3 | G3B3 | d2cB2c | (A3 A2)G |\
F3A3 | D3F3 | G2FG2A | B2d edc |
B3d3 | G3 B3 | d2cB2c | (A3A2)G |\
F2Af2e | d2^c =c2A | F2DB2A | G3 |]
